svg/biathlon.svg

<svg xmlns="http://www.w3.org/2000/svg" viewBox="0 0 24 24"><path d="M12.88 3.64c.77 0 1.4.63 1.4 1.4s-.63 1.4-1.4 1.4-1.38-.63-1.38-1.4.61-1.4 1.38-1.4M15 13h1.5v6H15zm0-4.5h1.5V10H15zm-4.96-5.9L8 2.04 6.06 8.58 3.9 11.42l3.27.95zm9.63 15.95c-.36.38-.79.95-1.27 1.15-.49.22-.86.3-1.4.3h-3.5l-.07-3c-.01-.17-.06-.33-.15-.5l-2.4-4.26.88-2.74a246 246 0 0 0 1.3 2.33c.15.17.39.3.63.3h2.21a.81.81 0 0 0 .81-.81c0-.42-.33-.76-.75-.79l-1.67-.13L12.4 7s-.4-.58-1.26-.58c-.87 0-1.14.42-1.31 1L6 20H3v2h14c1.37 0 2.53-.66 3.5-1.63zm-9.92-4.16 1.87 3 .13 2.61h-4z"/></svg>

<?xml version="1.0" encoding="UTF-8"?><!DOCTYPE svg PUBLIC "-//W3C//DTD SVG 1.1//EN" "http://www.w3.org/Graphics/SVG/1.1/DTD/svg11.dtd"><svg xmlns="http://www.w3.org/2000/svg" xmlns:xlink="http://www.w3.org/1999/xlink" version="1.1" id="mdi-biathlon" width="24" height="24" viewBox="0 0 24 24"><path d="M12.88,3.64C13.65,3.64 14.28,4.27 14.28,5.04C14.28,5.81 13.65,6.44 12.88,6.44C12.11,6.44 11.5,5.81 11.5,5.04C11.5,4.27 12.11,3.64 12.88,3.64M15,13H16.5V19H15V13M15,8.5H16.5V10H15V8.5M10.04,2.6L8,2.04L6.06,8.58L3.9,11.42L7.17,12.37L10.04,2.6M19.67,18.55C19.31,18.93 18.88,19.5 18.4,19.7C17.91,19.92 17.54,20 17,20H13.5L13.43,17C13.42,16.83 13.37,16.67 13.28,16.5L10.88,12.24L11.76,9.5C12.34,10.55 13,11.73 13.06,11.83C13.21,12 13.45,12.13 13.69,12.13H15.9A0.81,0.81 0 0,0 16.71,11.32C16.71,10.9 16.38,10.56 15.96,10.53L14.29,10.4L12.4,7C12.4,7 12,6.42 11.14,6.42C10.27,6.42 10,6.84 9.83,7.42L6,20H3V22H17C18.37,22 19.53,21.34 20.5,20.37L19.67,18.55M9.75,14.39L11.62,17.39L11.75,20H7.75L9.75,14.39Z" /></svg>
